X: 1
T: Joe Derrane's
M: 6/8
L: 1/8
R: jig
K: Bmin
|:A|B3 BAF|AFE E2F|DEF def|afe dBA|
BdB BAF|AFE E2F|D2A def|edB B2:|
|:d|e2e edB|~A3 d2A|def ~a3|baf afa|
baf afa|baf edB|def afe|dBA B2:|
